X:1
T:Title
%%score { 1 | 2 }
L:1/8
M:3/4
K:Ab
V:1 treble nm="Grand Piano"
V:2 bass 
V:1
 z2 z2[Q:1/4=108] [CE]2 | [Ec]2 [Ec]2 [Ec]2 | [Ec]2 [EB]2 [EA]2 | [FA]3 [FB] [FA][DF] | %4
[M:2/4] [CE]2 [CA]2 |[M:1/4] [EA]2 |[M:3/4] B3 B c[EA] | B4 B2 | c3 A ec |[M:2/4] B4 |[M:1/4] E2 | %11
[M:3/4] [Ec]2 [Ec]2 [Ec]2 | [Ec]2 [EB]2 [EA]2 | [FA]3 [FB] [FA][DF] |[M:2/4] [CE]2 [CA]2 | %15
[M:1/4] [EA]2 |[M:3/4] B3 B cd | c2 A2 B2 | A6 | B2 B2 B2 |[M:2/4] B4 |[M:1/4] e2 | %22
[M:3/4] c2 c2 c2 | c4 [Ec]2 | [EB]4 [EG]2 | [=DB]2 [DA]2 [DF]2 |[M:2/4] E4 |[M:1/4] E2 | %28
[M:3/4] [Ec]2 [Ec]2 [Ec]2 | [Ec]2 [EB]2 [EA]2 | [FA]3 [FB] [FA][DF] |[M:2/4] [CE]2 [CA]2 | %32
[M:1/4] [EA]2 |[M:3/4] B3 B cd | c2 A2 B2 |[M:7/4] A6 z2 z2 z4 |] %36
V:2
 z2 z2 [A,,A,]2 | [A,,A,]2 [A,,A,]2 [A,,A,]2 | [A,,A,]2 [B,,G,]2 [C,A,]2 | %3
 [D,A,]3 [D,A,] [D,A,][D,A,] |[M:2/4] [A,,A,]2 [A,,A,]2 |[M:1/4] [C,A,]2 | %6
[M:3/4] [E,G,E]3 [E,G,E] [A,E][C,A,] | [E,G,E]4 [E,G,E]2 | [A,E]3 [A,CE] [A,CE][A,E] | %9
[M:2/4] [E,G,E]4 |[M:1/4] [E,G,]2 |[M:3/4] [A,,A,]2 [A,,A,]2 [A,,A,]2 | [A,,A,]2 [B,,G,]2 [C,A,]2 | %13
 [D,A,]3 [D,A,] [D,A,][D,A,] |[M:2/4] [A,,A,]2 [A,,A,]2 |[M:1/4] [C,A,]2 | %16
[M:3/4] [E,G,E]3 [E,G,E] [E,A,E][E,B,E] | [E,A,E]2 [E,CE]2 [E,DE]2 | [A,CE]6 | %19
 [E,G,E]2 [E,G,E]2 [E,G,E]2 |[M:2/4] [E,G,E]4 |[M:1/4] E,2 |[M:3/4] [A,E]2 [A,E]2 [A,E]2 | %23
 [A,E]4 [A,,A,]2 | [B,,G,]4 [B,,B,]2 | [B,,F,]2 [B,,F,]2 [B,,A,]2 |[M:2/4] [E,G,]4 | %27
[M:1/4] [E,G,]2 |[M:3/4] [A,,A,]2 [A,,A,]2 [A,,A,]2 | [A,,A,]2 [B,,G,]2 [C,A,]2 | %30
 [D,A,]3 [D,A,] [D,A,][D,A,] |[M:2/4] [A,,A,]2 [A,,A,]2 |[M:1/4] [C,A,]2 | %33
[M:3/4] [E,G,E]3 [E,G,E] [E,A,E][E,B,E] | [E,A,E]2 [E,CE]2 [E,DE]2 |[M:7/4] [A,CE]6 z2 z2 z4 |] %36

